build/img/sprite.svg

<svg xmlns="http://www.w3.org/2000/svg" xmlns:xlink="http://www.w3.org/1999/xlink"><defs>
<clipPath id="clip0">
<rect width="128" height="24" fill="white"/>
</clipPath>
</defs><symbol id="footer-logo" viewBox="0 0 128 24"><g fill="none">
<g clip-path="url(#clip0)">
<path d="M1.6025 22.0513C0.468327 20.3682 -0.0946878 18.3503 -3.57628e-07 16.3077V7.79487C-0.137348 5.73031 0.390413 3.67661 1.50235 1.94872C2.60407 0.615385 4.30673 0 6.81064 0C9.31455 0 10.9171 0.615385 11.9186 1.74359C13.006 3.17255 13.5409 4.96181 13.421 6.76923V8.82051H8.5133V6.46154C8.55294 5.76385 8.45062 5.06533 8.21283 4.41026C8.08573 4.14583 7.88428 3.9264 7.6344 3.78018C7.38452 3.63395 7.09763 3.56763 6.81064 3.58974C6.10955 3.58974 5.60876 3.79487 5.40845 4.30769C5.18187 5.03643 5.08022 5.79984 5.10798 6.5641V17.5385C5.05509 18.2799 5.19324 19.0227 5.50861 19.6923C5.70892 20.2051 6.2097 20.4103 6.9108 20.4103C7.61189 20.4103 8.01252 20.2051 8.21283 19.6923C8.44055 18.9992 8.54239 18.2692 8.5133 17.5385V15.0769H13.421V17.1282C13.5228 18.9651 12.9911 20.7803 11.9186 22.2564C10.9171 23.4872 9.2144 24.1026 6.81064 24.1026C4.40689 24 2.60407 23.3846 1.6025 22.0513Z" fill="#111111"/>
<path d="M19.3302 0.307617H25.0391L29.2457 23.6922H24.6385L23.8372 18.7692H20.532L19.7308 23.6922H15.0234L19.3302 0.307617ZM23.4366 15.6922L22.2347 6.56403L21.0328 15.6922H23.4366Z" fill="#111111"/>
<path d="M32.7511 4.20505H29.3458V0.307617H41.2645V4.10249H37.8591V23.6922H32.7511V4.20505Z" fill="#111111"/>
<path d="M50.3787 0.307617H59.1925V2.76916H53.4836V10.4615H58.0908V12.8204H53.4836V21.4358H59.1925V23.7948H50.2786V0.307617H50.3787Z" fill="#111111"/>
<path d="M61.7965 0.307617H64L70.5101 15.7948V0.307617H73.1142V23.6922H71.1111L64.5007 7.69223V23.6922H61.7965V0.307617Z" fill="#111111"/>
<path d="M76.1189 0.307617H84.9327V2.76916H79.2237V10.4615H83.8309V12.8204H79.2237V21.4358H84.9327V23.7948H76.1189V0.307617Z" fill="#111111"/>
<path d="M87.5368 0.3076H92.144C93.9564 0.179397 95.7575 0.685711 97.252 1.7435C98.3537 2.66657 98.8545 4.3076 98.8545 6.46145C98.8545 9.4358 97.9531 11.282 96.0501 11.8973L99.2551 23.5897H96.1503L93.1456 12.6153H90.6416V23.5897H87.4366V0.3076H87.5368ZM91.9437 10.3589C92.9762 10.446 94.0054 10.1553 94.8482 9.53837C95.4492 9.02555 95.7496 7.99991 95.7496 6.46145C95.7774 5.69719 95.6757 4.93378 95.4492 4.20504C95.2237 3.68211 94.8366 3.24964 94.3474 2.97427C93.6576 2.65236 92.9003 2.51137 92.144 2.56401H90.7418V10.2563H91.9437V10.3589Z" fill="#111111"/>
<path d="M102.861 21.9487C101.82 20.1554 101.331 18.0821 101.458 15.9999V8.20507C101.434 6.71875 101.602 5.23567 101.959 3.79481C102.294 2.71811 102.962 1.78218 103.862 1.12815C104.981 0.450275 106.271 0.128917 107.568 0.20507C109.671 0.20507 111.174 0.71789 112.075 1.8461C113.112 3.33582 113.608 5.14977 113.477 6.9743V7.79481H110.473V7.07687C110.477 6.21789 110.41 5.36008 110.272 4.51276C110.188 3.97732 109.9 3.49792 109.471 3.17943C108.908 2.80104 108.24 2.62099 107.568 2.66661C106.85 2.61949 106.139 2.83785 105.565 3.28199C105.329 3.48529 105.137 3.73569 104.999 4.01787C104.861 4.30004 104.781 4.60805 104.764 4.92302C104.632 5.83993 104.565 6.76543 104.563 7.69225V16.4102C104.49 17.7384 104.694 19.0674 105.164 20.3076C105.565 21.1281 106.366 21.4358 107.568 21.4358C108.043 21.4964 108.524 21.4119 108.952 21.1929C109.379 20.9739 109.734 20.6302 109.972 20.2051C110.501 18.9081 110.741 17.5064 110.673 16.1025V14.4615H107.768V12.1025H113.577V23.6923H111.574L111.274 21.0256C111.011 21.9193 110.464 22.6975 109.72 23.2364C108.976 23.7753 108.078 24.0441 107.167 23.9999C106.34 24.0498 105.513 23.8885 104.761 23.5304C104.01 23.1724 103.357 22.6289 102.861 21.9487Z" fill="#111111"/>
<path d="M119.988 15.4871L115.08 0.410156H118.085L121.59 11.6922L124.995 0.410156H128L123.092 15.4871V23.6922H120.088V15.4871H119.988Z" fill="#111111"/>
</g>

</g></symbol><symbol id="html-academy" viewBox="0 0 27 34"><g fill="none">
<path d="M13.6426 0.0157537L13.5 0L0 1.40733V26.0129L13.5 34L27 26.0129V1.40733L13.6426 0.0157537ZM25.2344 25.0151L13.5 31.9573L1.76561 25.0151V14.9293L13.4507 21.8451L13.4701 23.0984L5.45351 18.3548L5.44295 19.5801L13.4894 24.3885L13.5088 25.675L5.46408 20.9174L5.45351 22.1427L13.5 26.9511L21.6239 22.1182V20.8929V16.909L25.2432 14.7595L25.2344 25.0151ZM25.2344 13.4519L22.0147 15.3319L20.5325 16.2071L13.4666 12.0201L13.456 13.2454L19.4957 16.818L19.4429 16.8495L19.3126 16.9247L18.4536 17.4166L13.4666 14.4689L13.456 15.6942L17.3921 18.0222L16.4591 18.6314L16.438 18.6436L13.4666 16.902L13.456 18.1273L15.4029 19.2615L13.4155 20.4483L1.7973 13.5762L13.4349 6.61831L25.2344 13.4519ZM25.2344 12.2266L13.4401 5.31075L1.76561 12.2196V2.9897L13.5 1.76442L25.2344 2.9897V12.2266Z" fill="#666666"/>
</g></symbol><symbol id="icon-facebook" viewBox="0 0 13 20"><g fill="none">
<path d="M11.5 0.833252H8.75001C7.53443 0.833252 6.36864 1.30674 5.5091 2.14957C4.64956 2.99239 4.16667 4.1355 4.16667 5.32743V8.02394H1.41667V11.6193H4.16667V18.81H7.83334V11.6193H10.5833L11.5 8.02394H7.83334V5.32743C7.83334 5.08905 7.92992 4.86042 8.10182 4.69186C8.27373 4.52329 8.50689 4.4286 8.75001 4.4286H11.5V0.833252Z" stroke="#666666" stroke-width="1.1" stroke-linecap="round" stroke-linejoin="round"/>
</g></symbol><symbol id="icon-instagram" viewBox="0 0 16 16"><g fill="none">
<path d="M7.98438 0.0625C9.31771 0.0625 10.4062 0.078125 11.25 0.109375C11.9688 0.140625 12.6094 0.265625 13.1719 0.484375C13.7135 0.692708 14.1823 0.994792 14.5781 1.39062C14.974 1.78646 15.276 2.25521 15.4844 2.79687C15.7031 3.35937 15.8281 4 15.8594 4.71875C15.8906 5.5625 15.9062 6.65104 15.9062 7.98437C15.9062 9.31771 15.8906 10.4062 15.8594 11.25C15.8281 11.9687 15.7031 12.6094 15.4844 13.1719C15.276 13.7135 14.974 14.1823 14.5781 14.5781C14.1823 14.974 13.7135 15.276 13.1719 15.4844C12.6094 15.7031 11.9688 15.8281 11.25 15.8594C10.4062 15.8906 9.31771 15.9062 7.98438 15.9062C6.65104 15.9062 5.5625 15.8906 4.71875 15.8594C4 15.8281 3.35938 15.7031 2.79688 15.4844C2.25521 15.276 1.78646 14.974 1.39062 14.5781C0.994792 14.1823 0.692708 13.7135 0.484375 13.1719C0.265625 12.6094 0.140625 11.9687 0.109375 11.25C0.078125 10.4062 0.0625 9.31771 0.0625 7.98437C0.0625 6.65104 0.078125 5.5625 0.109375 4.71875C0.140625 4 0.265625 3.35937 0.484375 2.79687C0.692708 2.25521 0.994792 1.78646 1.39062 1.39062C1.78646 0.994792 2.25521 0.692708 2.79688 0.484375C3.35938 0.265625 4 0.140625 4.71875 0.109375C5.5625 0.078125 6.65104 0.0625 7.98438 0.0625ZM7.98438 1.09375C6.59896 1.09375 5.46875 1.10937 4.59375 1.14062C4.03125 1.16146 3.51042 1.26042 3.03125 1.4375C2.28125 1.75 1.75 2.28125 1.4375 3.03125C1.26042 3.51042 1.16146 4.03125 1.14062 4.59375C1.10938 5.46875 1.09375 6.59896 1.09375 7.98437C1.09375 9.36979 1.10938 10.5 1.14062 11.375C1.16146 11.9375 1.26042 12.4583 1.4375 12.9375C1.75 13.6875 2.28125 14.2187 3.03125 14.5312C3.51042 14.7083 4.03125 14.8073 4.59375 14.8281C5.46875 14.8594 6.59896 14.875 7.98438 14.875C9.36979 14.875 10.5 14.8594 11.375 14.8281C11.9375 14.8073 12.4583 14.7083 12.9375 14.5312C13.6875 14.2187 14.2188 13.6875 14.5312 12.9375C14.7083 12.4583 14.8073 11.9375 14.8281 11.375C14.8594 10.5 14.875 9.36979 14.875 7.98437C14.875 6.59896 14.8594 5.46875 14.8281 4.59375C14.8073 4.03125 14.7083 3.51042 14.5312 3.03125C14.2188 2.28125 13.6875 1.75 12.9375 1.4375C12.4583 1.26042 11.9375 1.16146 11.375 1.14062C10.5 1.10937 9.36979 1.09375 7.98438 1.09375ZM7.98438 11.1562C8.85938 11.1562 9.60677 10.8464 10.2266 10.2266C10.8464 9.60677 11.1562 8.85937 11.1562 7.98437C11.1562 7.10937 10.8464 6.36198 10.2266 5.74219C9.60677 5.1224 8.85938 4.8125 7.98438 4.8125C7.10938 4.8125 6.36198 5.1224 5.74219 5.74219C5.1224 6.36198 4.8125 7.10937 4.8125 7.98437C4.8125 8.85937 5.1224 9.60677 5.74219 10.2266C6.36198 10.8464 7.10938 11.1562 7.98438 11.1562ZM7.98438 3.92187C9.10938 3.92187 10.0677 4.31771 10.8594 5.10937C11.651 5.90104 12.0469 6.85937 12.0469 7.98437C12.0469 9.10937 11.651 10.0677 10.8594 10.8594C10.0677 11.651 9.10938 12.0469 7.98438 12.0469C6.85938 12.0469 5.90104 11.651 5.10938 10.8594C4.31771 10.0677 3.92188 9.10937 3.92188 7.98437C3.92188 6.85937 4.31771 5.90104 5.10938 5.10937C5.90104 4.31771 6.85938 3.92187 7.98438 3.92187ZM13.1719 3.76562C13.1719 4.02604 13.0781 4.2474 12.8906 4.42969C12.7031 4.61198 12.474 4.70312 12.2031 4.70312C11.9427 4.70312 11.7214 4.61198 11.5391 4.42969C11.3568 4.2474 11.2656 4.02604 11.2656 3.76562C11.2656 3.49479 11.3568 3.26562 11.5391 3.07812C11.7214 2.89062 11.9427 2.79687 12.2031 2.79687C12.4635 2.79687 12.6901 2.89323 12.8828 3.08594C13.0755 3.27865 13.1719 3.50521 13.1719 3.76562Z" fill="#666666"/>
</g></symbol><symbol id="icon-vkontakte" viewBox="0 0 23 16"><g fill="none">
<path d="M0.0700912 3.99266C0.0700912 3.37082 0.493211 3.03552 1.33945 2.98675L4.60039 3.00503C4.81925 3.00503 4.96515 3.09648 5.03811 3.27938C5.37368 4.19385 5.74938 4.98334 6.16521 5.64785C6.58103 6.31237 7.12453 7.07748 7.79568 7.94317C7.85404 8.05291 7.94888 8.10778 8.08019 8.10778C8.18233 8.10778 8.26257 8.0651 8.32093 7.97975L8.38659 7.77857L8.40848 4.6145C8.40848 4.39503 8.34647 4.24871 8.22245 4.17556C8.09843 4.1024 7.86863 4.04753 7.53305 4.01095C7.27043 3.97437 7.13912 3.84025 7.13912 3.60859C7.13912 3.55981 7.14641 3.52323 7.161 3.49885C7.4674 2.70631 8.34282 2.31004 9.78726 2.31004L11.0129 2.29175C11.5673 2.29175 12.0269 2.40758 12.3916 2.63925C12.7564 2.87091 12.9388 3.2367 12.9388 3.73661V7.88831C13.0409 7.94927 13.1357 7.97975 13.2233 7.97975C13.4421 7.97975 13.6318 7.87002 13.7923 7.65054C15.3973 5.77283 16.2654 4.51696 16.3967 3.88293C16.3967 3.87073 16.4113 3.84025 16.4405 3.79148C16.5426 3.60859 16.7104 3.45008 16.9438 3.31595C17.1773 3.18183 17.3815 3.09039 17.5566 3.04161C17.615 3.01723 17.6806 3.00503 17.7536 3.00503H21.1459L21.3647 3.02332C21.6565 3.02332 21.8827 3.13916 22.0432 3.37082C22.1015 3.44398 22.1416 3.52323 22.1635 3.60859C22.1854 3.69394 22.2 3.77929 22.2073 3.86464C22.2146 3.94999 22.2182 3.99876 22.2182 4.01095V4.13898C22.1161 4.63889 21.8571 5.17233 21.4413 5.7393C21.0255 6.30627 20.4966 6.91897 19.8546 7.57739C19.2126 8.2358 18.8114 8.66865 18.6509 8.87593C18.5196 9.02225 18.4539 9.15637 18.4539 9.2783C18.4539 9.37584 18.5123 9.48558 18.629 9.60751L21.8243 12.9728C21.9994 13.1678 22.0869 13.3812 22.0869 13.6129C22.0869 13.8933 21.9556 14.125 21.693 14.3079C21.4304 14.4908 21.1167 14.5944 20.7519 14.6188L20.3799 14.6371H17.0533C17.0387 14.6371 17.0095 14.6401 16.9657 14.6462C16.9219 14.6523 16.8928 14.6554 16.8782 14.6554C16.5572 14.6554 16.2581 14.5396 15.9809 14.3079C15.8787 14.2103 15.193 13.491 13.9236 12.1497C13.8507 12.0644 13.7485 11.9851 13.6172 11.912C13.5589 12.1071 13.4823 12.3875 13.3874 12.7533C13.2926 13.1191 13.2233 13.3812 13.1795 13.5397L13.1139 13.8506C12.968 14.2774 12.6616 14.5335 12.1947 14.6188L11.8883 14.6371H9.74349C8.53249 14.6371 7.32514 14.1738 6.12144 13.2471C4.91773 12.3204 3.8344 11.1225 2.87144 9.65323C1.90848 8.18398 1.01117 6.47392 0.179519 4.52306C0.106567 4.36455 0.0700912 4.18775 0.0700912 3.99266ZM13.2233 8.72962C12.9169 8.72962 12.6397 8.65951 12.3916 8.51929C12.1436 8.37907 12.0196 8.18703 12.0196 7.94317V3.73661C12.0196 3.49275 11.9466 3.319 11.8007 3.21536C11.6548 3.11172 11.3995 3.0599 11.0347 3.0599L9.78726 3.09648C9.15988 3.09648 8.68569 3.18793 8.36471 3.37082C9.00668 3.62687 9.32767 4.04143 9.32767 4.6145V7.83344C9.29849 8.13826 9.15258 8.39126 8.88996 8.59245C8.62733 8.79363 8.33552 8.89422 8.01454 8.89422C7.57683 8.89422 7.24125 8.71742 7.0078 8.36383C5.86975 6.92506 5.02351 5.55945 4.46908 4.267L4.27211 3.79148L1.36134 3.77319C1.17166 3.77319 1.06588 3.78233 1.044 3.80062C1.02211 3.81891 1.01117 3.87073 1.01117 3.95608C1.01117 4.06582 1.02576 4.18165 1.05494 4.30358L1.51454 5.32779C2.74013 7.97366 4.07149 10.0586 5.50864 11.5828C6.94579 13.1069 8.35741 13.8689 9.74349 13.8689H11.932C12.0196 13.8689 12.0852 13.8476 12.129 13.8049C12.1728 13.7623 12.2093 13.6799 12.2384 13.558L12.2822 13.3751L12.698 11.7657C12.8148 11.5462 12.9169 11.3999 13.0044 11.3267C13.1649 11.1926 13.3546 11.1255 13.5735 11.1255C13.9236 11.1255 14.2811 11.3023 14.6459 11.6559L16.5061 13.6312C16.6228 13.7897 16.7469 13.8689 16.8782 13.8689H20.4893C20.927 13.8689 21.1459 13.7775 21.1459 13.5946C21.1459 13.5336 21.124 13.4727 21.0802 13.4117L17.9068 10.1013C17.6588 9.84527 17.5347 9.57093 17.5347 9.2783C17.5347 8.98567 17.6515 8.70523 17.8849 8.43699C18.0746 8.19313 18.443 7.78771 18.9901 7.22074C19.5373 6.65377 20.0151 6.12338 20.4236 5.62956C20.8322 5.13575 21.1021 4.68766 21.2334 4.28529L21.299 4.04753C21.2845 4.02314 21.2772 3.98352 21.2772 3.92865C21.2772 3.87378 21.2699 3.82806 21.2553 3.79148H17.8193C17.6004 3.86464 17.4253 3.97437 17.294 4.12069L17.1627 4.46819C16.7979 5.3095 15.8423 6.60805 14.2957 8.36383C13.9893 8.60769 13.6318 8.72962 13.2233 8.72962Z" fill="#666666"/>
</g></symbol></svg>

<svg xmlns="http://www.w3.org/2000/svg" xmlns:xlink="http://www.w3.org/1999/xlink"><defs><clipPath id="a"><path fill="#fff" d="M0 0h128v24H0z"/></clipPath></defs><symbol id="footer-logo"><g clip-path="url(#a)"><path d="M1.603 22.051A9.498 9.498 0 0 1 0 16.308V7.795a9.63 9.63 0 0 1 1.502-5.846C2.604.615 4.307 0 6.811 0s4.106.615 5.108 1.744a7.487 7.487 0 0 1 1.502 5.025v2.052H8.513V6.46a5.157 5.157 0 0 0-.3-2.05 1.463 1.463 0 0 0-.579-.63 1.415 1.415 0 0 0-.823-.191c-.701 0-1.202.205-1.403.718a6.774 6.774 0 0 0-.3 2.256v10.974a4.334 4.334 0 0 0 .4 2.154c.2.513.702.718 1.403.718.7 0 1.102-.205 1.302-.718.228-.693.33-1.423.3-2.154v-2.461h4.908v2.051a7.98 7.98 0 0 1-1.502 5.128c-1.002 1.231-2.705 1.847-5.108 1.847-2.404-.103-4.207-.718-5.208-2.052ZM19.33.308h5.71l4.206 23.384h-4.607l-.802-4.923h-3.305l-.801 4.923h-4.708L19.33.308Zm4.107 15.384-1.202-9.128-1.202 9.128h2.404ZM32.751 4.205h-3.405V.308h11.918v3.794H37.86v19.59h-5.108V4.205ZM50.379.308h8.814v2.461h-5.71v7.692h4.608v2.36h-4.607v8.615h5.709v2.359h-8.914V.308h.1ZM61.797.308H64l6.51 15.487V.308h2.604v23.384h-2.003l-6.61-16v16h-2.705V.308ZM76.119.308h8.814v2.461h-5.71v7.692h4.608v2.36h-4.607v8.615h5.709v2.359h-8.814V.308ZM87.537.308h4.607a7.874 7.874 0 0 1 5.108 1.436c1.102.923 1.603 2.564 1.603 4.717 0 2.975-.902 4.821-2.805 5.436l3.205 11.693H96.15l-3.004-10.975h-2.504V23.59h-3.205V.308h.1Zm4.407 10.05a4.301 4.301 0 0 0 2.904-.82c.601-.512.902-1.538.902-3.077a6.775 6.775 0 0 0-.3-2.256 2.583 2.583 0 0 0-1.103-1.23 4.473 4.473 0 0 0-2.203-.411h-1.402v7.692h1.202v.103ZM102.861 21.949a10.575 10.575 0 0 1-1.403-5.95V8.206c-.024-1.486.144-2.97.501-4.41a5.204 5.204 0 0 1 1.903-2.667 6.421 6.421 0 0 1 3.706-.923c2.103 0 3.606.513 4.507 1.641a7.982 7.982 0 0 1 1.402 5.128v.82h-3.004v-.717a15.503 15.503 0 0 0-.201-2.564 2.056 2.056 0 0 0-.801-1.334 3.04 3.04 0 0 0-1.903-.512 2.955 2.955 0 0 0-2.003.615 2.349 2.349 0 0 0-.801 1.641 19.734 19.734 0 0 0-.201 2.77v8.717a9.527 9.527 0 0 0 .601 3.898c.401.82 1.202 1.128 2.404 1.128.475.06.956-.024 1.384-.243a2.457 2.457 0 0 0 1.02-.988 9.635 9.635 0 0 0 .701-4.102V14.46h-2.905v-2.359h5.809v11.59h-2.003l-.3-2.666a4.186 4.186 0 0 1-1.554 2.21 4.016 4.016 0 0 1-2.553.764 4.907 4.907 0 0 1-2.406-.47 5.037 5.037 0 0 1-1.9-1.581ZM119.988 15.487 115.08.41h3.005l3.505 11.282L124.995.41H128l-4.908 15.077v8.205h-3.004v-8.205h-.1Z"/></g></symbol><symbol id="html-academy"><path d="M13.643.016 13.5 0 0 1.407v24.606L13.5 34 27 26.013V1.407L13.643.016Zm11.591 25L13.5 31.956 1.766 25.015V14.93l11.685 6.916.02 1.253-8.017-4.743-.011 1.225 8.046 4.809.02 1.286-8.045-4.758-.01 1.226L13.5 26.95l8.124-4.833V16.91l3.62-2.15-.01 10.256Zm0-11.564-3.22 1.88-1.482.875-7.065-4.187-.011 1.225 6.04 3.573-.053.031-.13.076-.86.492-4.986-2.948-.011 1.225 3.936 2.328-.933.61-.021.012-2.971-1.742-.011 1.225 1.947 1.135-1.988 1.186-11.618-6.872 11.638-6.958 11.8 6.834Zm0-1.225L13.44 5.31 1.766 12.22V2.99L13.5 1.764 25.234 2.99v9.237Z"/></symbol><symbol id="icon-facebook"><g fill="none"><path d="M11.5.833H8.75A4.63 4.63 0 0 0 5.51 2.15a4.45 4.45 0 0 0-1.343 3.177v2.697h-2.75v3.595h2.75v7.191h3.666v-7.19h2.75l.917-3.596H7.833V5.327a.89.89 0 0 1 .269-.635.926.926 0 0 1 .648-.263h2.75V.833Z"/></g></symbol><symbol id="icon-instagram"><path d="M7.984.063c1.334 0 2.422.015 3.266.046.719.032 1.36.157 1.922.375.541.209 1.01.51 1.406.907.396.395.698.864.906 1.406.22.562.344 1.203.375 1.922.032.843.047 1.932.047 3.265 0 1.334-.015 2.422-.047 3.266-.03.719-.156 1.36-.375 1.922a3.987 3.987 0 0 1-.906 1.406 3.987 3.987 0 0 1-1.406.906c-.563.22-1.203.344-1.922.375-.844.032-1.932.047-3.266.047a91.88 91.88 0 0 1-3.265-.047c-.719-.03-1.36-.156-1.922-.375a3.987 3.987 0 0 1-1.406-.906 3.987 3.987 0 0 1-.907-1.406C.266 12.609.141 11.969.11 11.25a91.735 91.735 0 0 1-.046-3.266c0-1.333.015-2.421.046-3.265.032-.719.157-1.36.375-1.922.209-.542.51-1.01.907-1.406A3.987 3.987 0 0 1 2.797.484C3.359.266 4 .141 4.719.11A91.733 91.733 0 0 1 7.984.063Zm0 1.03c-1.385 0-2.515.016-3.39.048-.563.02-1.084.12-1.563.296a2.853 2.853 0 0 0-1.594 1.594c-.177.48-.276 1-.296 1.563a98.83 98.83 0 0 0-.047 3.39c0 1.386.015 2.516.047 3.391.02.563.12 1.083.296 1.563.313.75.844 1.28 1.594 1.593.48.177 1 .276 1.563.297.875.031 2.005.047 3.39.047 1.386 0 2.516-.016 3.391-.047a5.015 5.015 0 0 0 1.563-.297 2.852 2.852 0 0 0 1.593-1.594c.177-.479.276-1 .297-1.562.031-.875.047-2.005.047-3.39 0-1.386-.016-2.516-.047-3.391a5.015 5.015 0 0 0-.297-1.563 2.853 2.853 0 0 0-1.594-1.594c-.479-.177-1-.276-1.562-.296a98.803 98.803 0 0 0-3.39-.047Zm0 10.063c.875 0 1.623-.31 2.243-.93.62-.62.93-1.367.93-2.242s-.31-1.622-.93-2.242a3.056 3.056 0 0 0-2.243-.93c-.875 0-1.622.31-2.242.93-.62.62-.93 1.367-.93 2.242s.31 1.623.93 2.243c.62.62 1.367.93 2.242.93Zm0-7.234c1.125 0 2.084.396 2.875 1.187.792.792 1.188 1.75 1.188 2.875s-.396 2.084-1.188 2.875c-.791.792-1.75 1.188-2.875 1.188s-2.083-.396-2.875-1.188c-.791-.791-1.187-1.75-1.187-2.875s.396-2.083 1.187-2.875c.792-.791 1.75-1.187 2.875-1.187Zm5.188-.156c0 .26-.094.481-.281.664a.949.949 0 0 1-.688.273.904.904 0 0 1-.664-.273.904.904 0 0 1-.273-.664c0-.271.09-.5.273-.688a.891.891 0 0 1 .664-.281.93.93 0 0 1 .68.289.93.93 0 0 1 .289.68Z"/></symbol><symbol id="icon-vkontakte"><path d="M.07 3.993c0-.622.423-.957 1.27-1.006l3.26.018c.22 0 .365.091.438.274.336.915.711 1.704 1.127 2.369.416.664.96 1.43 1.63 2.295.059.11.154.165.285.165a.276.276 0 0 0 .24-.128l.067-.201.021-3.165c0-.219-.062-.365-.186-.438-.124-.074-.353-.128-.689-.165-.263-.037-.394-.17-.394-.402 0-.05.007-.086.022-.11.306-.793 1.182-1.189 2.626-1.189l1.226-.018c.554 0 1.014.116 1.379.347.364.232.547.598.547 1.098v4.151a.562.562 0 0 0 .284.092c.22 0 .409-.11.57-.33 1.604-1.877 2.472-3.133 2.604-3.767a.29.29 0 0 1 .044-.092c.102-.182.27-.34.503-.475.233-.134.438-.226.613-.274a.507.507 0 0 1 .197-.037h3.392l.219.018c.292 0 .518.116.678.348a.63.63 0 0 1 .12.238c.022.085.037.17.044.256.008.085.011.134.011.146v.128c-.102.5-.36 1.033-.777 1.6-.415.567-.944 1.18-1.586 1.838-.642.659-1.044 1.092-1.204 1.299-.131.146-.197.28-.197.402 0 .098.058.208.175.33l3.195 3.365a.939.939 0 0 1 .263.64c0 .28-.131.512-.394.695a1.826 1.826 0 0 1-.941.31l-.372.02h-3.327a.794.794 0 0 0-.087.008.802.802 0 0 1-.088.01c-.32 0-.62-.116-.897-.348-.102-.098-.788-.817-2.057-2.158a1.106 1.106 0 0 0-.307-.238c-.058.195-.135.475-.23.841-.094.366-.164.628-.207.787l-.066.31c-.146.427-.452.684-.92.769l-.306.018H9.743c-1.21 0-2.418-.463-3.622-1.39-1.203-.927-2.287-2.124-3.25-3.594-.963-1.469-1.86-3.18-2.691-5.13a1.254 1.254 0 0 1-.11-.53ZM13.223 8.73a1.66 1.66 0 0 1-.831-.21c-.248-.14-.372-.333-.372-.577V3.737c0-.244-.073-.418-.22-.522-.145-.103-.4-.155-.765-.155l-1.248.036c-.627 0-1.101.092-1.422.275.642.256.963.67.963 1.243v3.22c-.03.304-.175.557-.438.758a1.405 1.405 0 0 1-.875.302c-.438 0-.774-.177-1.007-.53C5.87 6.925 5.024 5.559 4.469 4.267l-.197-.476-2.91-.018c-.19 0-.296.01-.318.028-.022.018-.033.07-.033.155 0 .11.015.226.044.348l.46 1.024c1.225 2.646 2.556 4.73 3.994 6.255 1.437 1.524 2.848 2.286 4.234 2.286h2.189c.088 0 .153-.021.197-.064.044-.043.08-.125.11-.247l.043-.183.416-1.61c.117-.219.219-.365.306-.438a.86.86 0 0 1 .57-.201c.35 0 .707.176 1.072.53l1.86 1.975c.117.159.24.238.372.238h3.611c.438 0 .657-.091.657-.274a.312.312 0 0 0-.066-.183l-3.173-3.31c-.248-.257-.372-.531-.372-.824 0-.292.116-.573.35-.841.19-.244.558-.65 1.105-1.216a28.203 28.203 0 0 0 1.434-1.591c.408-.494.678-.942.81-1.345l.065-.237a.243.243 0 0 1-.022-.12c0-.054-.007-.1-.022-.137H17.82a1.199 1.199 0 0 0-.525.33l-.131.347c-.365.841-1.32 2.14-2.867 3.896a1.672 1.672 0 0 1-1.073.366Z"/></symbol></svg>
